X:1
T:Ring Out, Ring Out, O Christmas Bells
T:Ring Out, Ring Out, O Christmas Bells
T:Charles F. Roper
T:Katharine Ingmise, before 1917
T:Public Domain Courtesy of the Cyber Hymnal™
C:Charles F. Roper
Z:Public Domain
Z:Courtesy of the Cyber Hymnal™
%%score 1 ( 2 3 )
L:1/8
Q:1/4=100
M:4/4
K:C
V:1 treble 
V:2 bass 
V:3 bass 
V:1
 [EG]2 | [EG]3 [EG] [Ec]3 [Ec] | ([Bd][Ac]) ([GB][FA]) [EG]3 [EA] | [FG]3 [FA] [EG]3 [EA] x2 | %4
w: 1.~Ring|out, ring out, O|Christ- * mas * bells! A|tale of joy your|
w: 2.~O|Lord of lords, and|King * of * kings, Sweet|peace and joy Thy|
w: 3.~But|who can mea- sure|all * the * love That|brought Thee from Thy|
w: 4.~Dear|Sav- ior, eld- er|bro- * ther, * friend, A-|bide with us till|
 [FG]3 [FA] [EG]3 [EG] x | [Ec]3 [DB] [DA]2 [DA]2 | [Dd]3 [DB] [^CG]2 [CA]2 | %7
w: mu- sic tells; A|Sav- ior King was|born to- day To|
w: pre- sence brings; We|know the Fa- ther|loves us well To|
w: throne a- bove, With|us to live, for|us to die, That|
w: life shall end; And|then, when death shall|set us free, With-|
 [DB]2 [Ec]2 [DB]2 [CA]2 | [CA]3 [B,G] [B,G]3 ||"^Refrain" [B,G] | [FG]3 [FA] [EG]3 [EA] x2 | %11
w: rule the hearts of|men for aye.|||
w: res- cue thus our|souls from hell.|For|this we join to|
w: we might reign with|Thee on high.|||
w: in the king- dom|won by Thee.|||
 ([B,G][DB]) ([Ec][Fd]) [Ge]3 [Ge] | ([Bd][Ac]) ([GB][FA]) [EG]3 [EA] | [FG]3 [FA] [CE]2 z2 x | %14
w: |||
w: swell * the * strain The|an- * gels * sang o’er|Ju- dah’s plain!|
w: |||
w: |||
 [Ec]2 [Ec][DB] [CA]2 [CA]2 | [Fd]3 [Ec] [DB]3 [FB] | [Ec]2 [_Ec]2 [=Ec]3 [EG] | %17
w: |||
w: Glo- ry to God, good|will to men, Shall|rise and fill the|
w: |||
w: |||
 [FA]2 [FB]2 !fermata![Ec]2 |] %18
w: |
w: heav’ns a- gain.|
w: |
w: |
V:2
 [C,G,]2 | [C,G,]3 [C,C] [C,G,]3 [C,G,] | (F,G,) (A,B,) [C,C]3 [C,C] | B,3 z B, C3 z C | %4
 B,3 z B, [C,C]3 [C,G,] | [A,,A,]3 [A,,A,] [D,^F,]2 [C,F,]2 | [B,,G,]3 [B,,G,] [E,A,]2 [E,G,]2 | %7
 [D,G,]2 [D,E,]2 [D,^F,]2 [D,F,]2 | [D,^F,]3 [G,,G,] [G,,G,]3 || [G,,G,] | B,3 z B, C3 z C | %11
 [G,,G,]2 [G,,G,]2 [C,G,]3 [C,G,] | (F,G,) (A,B,) [C,C]3 [C,C] | B,3 z B, [C,C]2 z2 | %14
 [A,,A,]2 [A,,A,][A,,A,] [F,A,]2 [F,A,]2 | [D,F,]3 [D,F,] G,3 [G,D] | [A,C]2 [^F,A,]2 G,3 [G,C] | %17
 [G,C]2 [G,D]2 !fermata![C,C]2 |] %18
V:3
 x2 | x8 | C,2 C,2 x4 | (F,D,) G,,2 (C,E, G,2) x2 | (F,D, G,,2) x5 | x8 | x8 | x8 | x7 || x | %10
 (F,D, G,,2) (C,E, G,2) x2 | x8 | C,2 C,2 x4 | (G,D, G,,2) x5 | x8 | x4 G,3 x | x4 G,3 x | x6 |] %18

